01_P/P_3_1_2_02/data/space2.svg

<svg width="100" height="100" viewBox="0 0 100 100" xmlns="http://www.w3.org/2000/svg"><path fill="#B59D00" d="M.008 15.967l1.319-.001v.012a15.357 15.357 0 0 0 11.007-4.825l-.008-.008.817-.868L2.235-.003l-.818.868c-.088.088-.261.143-.261.143H0l.008 14.959z"/></svg>

<?xml version="1.0" encoding="utf-8"?>
<svg id="Ebene_1" x="0px" y="0px" width="100px" height="100px" viewBox="0 0 100 100" xmlns="http://www.w3.org/2000/svg">
  <path fill="#B59D00" d="M 0.008 15.967 L 1.327 15.966 L 1.327 15.978 C 5.328 15.941 9.373 14.298 12.334 11.153 L 12.326 11.145 L 13.143 10.277 L 2.235 -0.003 L 1.417 0.865 L 1.417 0.865 C 1.329 0.953 1.156 1.008 1.156 1.008 L 0 1.008 L 0.008 15.967 Z"/>
</svg>
